src/ios-calendar-outline.svg

<?xml version="1.0" encoding="utf-8"?>
<!-- Generated by IcoMoon.io -->
<!DOCTYPE svg PUBLIC "-//W3C//DTD SVG 1.1//EN" "http://www.w3.org/Graphics/SVG/1.1/DTD/svg11.dtd">
<svg version="1.1" xmlns="http://www.w3.org/2000/svg" xmlns:xlink="http://www.w3.org/1999/xlink" width="512" height="512" viewBox="0 0 512 512">
<path fill="#000000" d="M352 96v-32h-16v32h-160v-32h-16v32h-96v352h384v-352h-96zM432 432h-352v-240h352v240zM432 176h-352v-64h80v32h16v-32h160v32h16v-32h80v64z"></path>
</svg>

<?xml version="1.0" encoding="utf-8"?>
<!-- Generator: Adobe Illustrator 16.2.1, SVG Export Plug-In . SVG Version: 6.00 Build 0)  -->
<!DOCTYPE svg PUBLIC "-//W3C//DTD SVG 1.1//EN" "http://www.w3.org/Graphics/SVG/1.1/DTD/svg11.dtd">
<svg version="1.1" id="Layer_1" xmlns="http://www.w3.org/2000/svg" xmlns:xlink="http://www.w3.org/1999/xlink" x="0px" y="0px"
	 width="512px" height="512px" viewBox="0 0 512 512" style="enable-background:new 0 0 512 512;" xml:space="preserve">
<style type="text/css">
<![CDATA[
	.st0{fill:none;}
]]>
</style>
<polyline class="st0" points="80,112 80,176 432,176 432,112 "/>
<path d="M352,96V64h-16v32H176V64h-16v32H64v352h384V96H352z M432,432H80V192h352V432z M432,176H80v-64h80v32h16v-32h160v32h16v-32
	h80V176z"/>
</svg>
